!!!id: BC028
!!!page: 39
!!!COM: Serradell Sevilla, Narciso
!!!LYR: Nel, Jean
!!!PTL@@FR: Les 100 plus belles chansons
!!!OTL@@FR: L'Hirondelle
!!!PUB: La Bonne Chanson, inc.
!!!YEM: On ne peut reproduire, enregistrer ou diffuser en tout ou en partie le présent ouvrage, sous quelque procédé que ce soit, électronique, mécanique, photographique, sonore, magnétique ou autre, sans avoir obtenu au préalable l'autorisation écrite de l'éditrice.
!!!PDT: 2011
!!!SMA: 2012 Bibliothèque nationale du Québec; Biblothèque nationale du Canada
!!!AGN-Laforte: Chanson strophique (sans refrain), 2:4(4+6)+4(7+4), see: https://blog.seniorennet.be/oldies_lyrics_scrapbook/archief.php?ID=805145
!!!AGN-type: Chanson d'oiseaux
!!!AGN-rime: mixtes: croisées (abab) + embrassées (cddc) + suivies (aab)
**kern	**text	**text
*clefG2	*	*
*k[b-e-a-]	*	*
*E-:	*	*
*M4/4	*	*
*met(c)	*	*
*^	*	*
*	*	*v:1	*v:2
*	*	*pline:1	*pline:9
!!LO:TX:a:t=Moderato
{{16B-	16B-	Tu	Rem-
8.e-	8.G	vas	pli
16f	16B-	par-	d'é-
=1	=1	=1	=1
4..g	4..e-	-tir,	-moi,
16f	16d	char-	vers
8.g	8.e-	-man-	des
16a-	16f	-te	ri-
8.b-	8.g	mes-	-ves
16cc	16a-	-sa-	loin-
=2	=2	=2	=2
([4cc	([4a-	-gè-	-tai-
16ccL]	16a-L]	.	.
16b-	16g	.	.
16a-	16f	.	.
16gJ)	16e-J)	.	.
8f	8d	-re,	-nes,
*	*	*rp:	*
*	*	*rf:	*
*	*	*rs:	*
*v	*v	*	*
16r}	.	.
*^	*	*
*	*	*pline:2	*pline:10
{16B-	16B-	Pour	Tout
8.e-	8.G	re-	com-
16f	16B-	-ve-	-me
!!LO:PB:g=original
=3	=3	=3	=3
4.g	4.e-	-nir	toi,
8b-	8g	nous	je
8a	8f#	re-	par-
8b-	8g	-voir	-tis
8.cc;	8.a-	qu'au	en
16b-	16g	prin-	chan-
=4	=4	=4	=4
([4fn	([4d	-temps;	-tant,
*	*	*	*
*	*	*	*
*	*	*	*
8fL]	8dL]	.	.
16a-	16f	.	.
16gJ)	16e-J)	.	.
16f	16d	.	.
*v	*v	*	*
16r}	.	.
*^	*	*
*	*	*pline:3	*pline:11
!	!	!accent not in original	!
{16B-	16B-	À	Je
8.e-	8.G	ton	n'ai
16f	16B-	re-	trou-
=5	=5	=5	=5
4.g	4.e-	-tour,	-vé
8f	8d	hi-	que
8e-	8e-	-ron-	mi-
8ee-	8g	del-	-sè-
8ee-	8g	-le	-res,
8dd	8b-	lé-	que
!!LO:PB:g=original
=6	=6	=6	=6
2dd	2b-	-gè-	pei-
8cc}	8a-	-re,	-nes,
*	*	*	*
*	*	*	*
*	*	*	*
*	*	*pline:4	*pline:12
*	*	*	*bis
{8cc	8a-	A-	Je
8a-	8f	-vec	n'ai
8f	8d	a-	trou-
=7	=7	=7	=7
4.g	4.e-	-mour	-vé
8b-	8g	je	que
*	*	*	*Xbis
8a	8f#	guet-	cha-
8b-	8g	-te-	-grins
8.a-	8.fn	-rai	et
16f	16d	ton	tour-
=8	=8	=8	=8
[2e-	[2e-	chant.	-ments.
*	*	*	*
*	*	*	*
*	*	*	*
8e-]	8e-]	.	.
*v	*v	*	*
16r}}	.	.
*^	*	*
*	*	*pline:5a	*pline:13a
{{16b-	16g	Tu	Si
8.cc;	8.a-	trou-	je
16b-	16g	-ve-	pou-
!!LO:PB:g=original
=9	=9	=9	=9
[4b-	[4g	-ra	-vais
*Xbrackettup	*Xtuplet	*	*
(12b-]	12g]	.	.
12a-	12f	sous	com-
12f)	12d	mon	-me
(12d	12B-	toit	toi
*	*	*	*
*	*	*	*
*	*	*	*
*	*	*pline:5b	*pline:13b
12b-	12d	Si	Re-
12cc)	12f	tu	-ga-
(12dd	12b-	res-	-gner
12ee-	12cc	-tes	le
12ff)	12b-	fi-	ri-
=10	=10	=10	=10
2gg	(4ee-	-dè-	-va-
.	4b-)	.	.
8ee-	8g	-le,	-ge,
*	*	*	*
*	*	*	*
*	*	*	*
*v	*v	*	*
16r}	.	.
*^	*	*
*	*	*pline:6a	*pline:14a
{16gg	16ee-	Mon	Le
8.ff;	8.a-	hi-	cher
16b-	16g	-ron-	vil-
!!LO:PB:g=original
=11	=11	=11	=11
4ee-	4cc	-del-	-la-
4dd	4b-	-le,	-ge,
*	*	*pline:6b	*pline:14b
*tuplet	*Xtuplet	*	*
(12dd	12b-	Ton	Que
12cc	12a-	pe-	j'ha-
12dd)	12b-	-tit	-bi-
(12ee-	12cc	nid	-tais
12dd	12b-	d'au-	au-
12cc)	12a-	-tre-	-tre-
=12	=12	=12	=12
(2b-	(2g	fois;	fois;
*	*	*	*
*	*	*	*
*	*	*	*
8g)	8e-)	.	.
*v	*v	*	*
16r}}	.	.
*^	*	*
*	*	*pline:7a	*pline:15a
{{16b-	16g	Quand	Oi-
8.b-	8.g	je	seau
16an	16f#	t'ap-	vo-
=13	=13	=13	=13
2b-	2g	-pel-	-la-
*tuplet	*Xtuplet	*	*
(12g	12e-	-le,	-ge
*	*	*	*
*	*	*	*
*	*	*	*
*	*	*pline:7b	*pline:15b
12g	12e-	Ne	Sou-
12a-X)	12fn	sois	-dain
*tuplet	*Xtuplet	*	*
(12b-	12g	pas	de-
12cc	12a-	trop	-ve-
12dd)	12b-	re-	-nu
!!LO:PB:g=original
=14	=14	=14	=14
2ee-	2cc	-bel-	sa-
8cc	8a-	-le,	-ge,
*	*	*	*
*	*	*	*
*	*	*	*
*v	*v	*	*
16r}	.	.
*^	*	*
*	*	*pline:8a=6a	*pline:16a
*	*	*bis	*
{16cc	16a-	Mon	Plein
8.a-	8.f	hi-	de
16f	16d	-ron-	cou-
=15	=15	=15	=15
4g	4e-	-del-	-ra-
8.g	8.e-	-le,	-ge
*	*	*Xbis	*
*	*	*	*
*	*	*	*
*	*	*	*
*	*	*pline:8b	*pline:16b
16b-	16g	Sur-	Je
8a	8f#	-tout	re-
8b-	8g	re-	-vien-
8a-	8f	-viens	drais
16f	16d	chez	chez
=16	=16	=16	=16
[2e-	[2e-	moi.	moi.
*	*	*	*
*	*	*	*
*	*	*	*
8e-]	8e-]	.	.
*v	*v	*	*
16r}}	.	.
*^	*	*
==	==	==	==
*-	*-	*-	*-
!!!EED: Ève Poudrier
!!!EEV: 2025/May/29
